Adwaita++/actions/22/run-build-clean.svg

<svg height="22" viewBox="0 0 22 22" width="22" xmlns="http://www.w3.org/2000/svg">
  <path d="m7 1v1.0859375c-.8906.1527-1.7351031.5045969-2.4707031 1.0292969l-.7714844-.7714844-1.4140625 1.4140625.7695312.7695313c-.523.7366999-.8727374 1.5818562-1.0234374 2.4726562h-1.0898438v2h1.0859375c.1527.8906.5045969 1.734703 1.0292969 2.470703l-.7714844.771485 1.4140625 1.414062.7695313-.769531c.7366999.523 1.5818562.873437 2.4726562 1.023437v1.089844h2v-1.085938c.8906-.153 1.734703-.504296 2.470703-1.029296l.771485.771484 1.414062-1.414062-.769531-.769532c.523-.737.873437-1.581856 1.023437-2.472656h1.089844v-2h-1.085938c-.153-.8906-.504296-1.7351031-1.029296-2.4707031l.771484-.7714844-1.414062-1.4140625-.769532.7695312c-.737-.523-1.581856-.8727374-2.472656-1.0234374v-1.0898438zm0 5h4v4h-4l-2-2z" fill="#444" transform="translate(3 3)"/>
</svg>

<svg xmlns="http://www.w3.org/2000/svg" width="22" height="22" viewBox="0 0 22 22">
 <defs>
  <style id="current-color-scheme" type="text/css">
   .ColorScheme-Text { color:#444444; } .ColorScheme-Highlight { color:#4285f4; }
  </style>
 </defs>
 <path style="fill:currentColor" class="ColorScheme-Text" d="M 7 1 L 7 2.0859375 C 6.1094 2.2386375 5.2648969 2.5905344 4.5292969 3.1152344 L 3.7578125 2.34375 L 2.34375 3.7578125 L 3.1132812 4.5273438 C 2.5902812 5.2640437 2.2405438 6.1092 2.0898438 7 L 1 7 L 1 9 L 2.0859375 9 C 2.2386375 9.8906 2.5905344 10.734703 3.1152344 11.470703 L 2.34375 12.242188 L 3.7578125 13.65625 L 4.5273438 12.886719 C 5.2640437 13.409719 6.1092 13.760156 7 13.910156 L 7 15 L 9 15 L 9 13.914062 C 9.8906 13.761062 10.734703 13.409766 11.470703 12.884766 L 12.242188 13.65625 L 13.65625 12.242188 L 12.886719 11.472656 C 13.409719 10.735656 13.760156 9.8908 13.910156 9 L 15 9 L 15 7 L 13.914062 7 C 13.761062 6.1094 13.409766 5.2648969 12.884766 4.5292969 L 13.65625 3.7578125 L 12.242188 2.34375 L 11.472656 3.1132812 C 10.735656 2.5902812 9.8908 2.2405438 9 2.0898438 L 9 1 L 7 1 z M 7 6 L 11 6 L 11 10 L 7 10 L 5 8 L 7 6 z" transform="translate(3 3)"/>
</svg>
